X: 6
T: No_112_Song_of_the_Trees.krn
N: Derived from No_112_Song_of_the_Trees.krn
%%abc-version 2.0
%%abcx-abcm2ps-target-version 5.9.1 (29 Sep 2008)
%%abc-creator hum2abc beta
%%abcx-conversion-date 2019/03/15 08:29:13
%%humdrum-veritas 2459120024
%%humdrum-veritas-data 2637133016
%%linebreak <none>
%%barnumbers 0
L: 1/8
M: 3/4
%%staves {1 2}
V: 1 clef=bass
V: 2 clef=bass
K: A
[V:1] [K:clef=bass][M:3/4]E2E2(3ECE ||  
[V:2] [K:clef=bass][M:3/4](3!accent!G,, z G,, (3!accent!G,, z G,, (3!accent!G,, z G,, ||  
[V:1] [M:2/4]E4 ||  
[V:2] [M:2/4]z4 ||  
[V:1] [M:3/4]CE CB, A,3/A,/ ||  
[V:2] [M:3/4]z6 ||  
[V:1] [M:2/4]A,3A, ||  
[V:2] [M:2/4]z4 ||  
[V:1] [M:3/4]A,6 | 
[V:2] [M:3/4]z6 | 
[V:1] E2E2(3ECE ||  
[V:2] z6 ||  
[V:1] [M:2/4]E4 ||  
[V:2] [M:2/4]z4 ||  
[V:1] [M:3/4]CE CB, A,3/A,/ ||  
[V:2] [M:3/4]z6 ||  
[V:1] [M:2/4]A,3A, | 
[V:2] [M:2/4]z4 | 
[V:1] A,4 | 
[V:2] z4 | 
[V:1] A,A, (3A,CA, | 
[V:2] z4 | 
[V:1] CC-C2 ||  
[V:2] z4 ||  
[V:1] [M:3/4]B,C E/A,3/ A,3/A,/ ||  
[V:2] [M:3/4]z6 ||  
[V:1] [M:2/4]A,4 ||  
[V:2] [M:2/4]z4 ||  
[V:1] [M:3/4]A,/A,3/ A,3/A,/ F,A, ||  
[V:2] [M:3/4]z6 ||  
[V:1] [M:2/4]A,4 ||  
[V:2] [M:2/4]z4 ||  
[V:1] [M:3/4]F,A, F,E, E,3/E,/ ||  
[V:2] [M:3/4]z6 ||  
[V:1] [M:2/4]E,4 ||  
[V:2] [M:2/4]z4 ||  
[V:1] [M:3/4]E,E,E,2C,E, ||  
[V:2] [M:3/4]z6 ||  
[V:1] [M:2/4]E,4 ||  
[V:2] [M:2/4]z4 ||  
[V:1] [M:3/4]C,E, C,B,, A,,3/A,,/ | 
[V:2] [M:3/4]z6 | 
[V:1] A,,6 |]  
[V:2] z6 |]  



